img/ellipse-6.svg

<svg fill="none" height="146" viewBox="0 0 118 146" width="118" xmlns="http://www.w3.org/2000/svg"><path d="m.361249 11.0917c-.073695.2751.089536.5578.364578.6315l4.482263 1.201c.27506.0737.55777-.0895.63148-.3646.0737-.275-.08953-.5577-.36459-.6314l-3.98423-1.0676 1.06757-3.98424c.0737-.27505-.08953-.55778-.36457-.63147-.27506-.0737-.55778.08953-.63148.36459zm76.566151 132.6163c-.0737.275.0895.558.3646.632l4.4822 1.201c.2751.073.5578-.09.6315-.365s-.0895-.558-.3646-.631l-3.9842-1.068 1.0676-3.984c.0737-.275-.0896-.558-.3646-.632-.2751-.073-.5578.09-.6315.365zm-75.81032-132.0363c37.12272-21.43282 84.23062-9.30302 105.22692 27.063l.893-.5156c-21.2907-36.87599-69.0365-49.1482-106.635519-27.4404zm105.22692 27.063c20.996 36.3661 7.946 83.2273-29.1764 104.6603l.5156.893c37.5988-21.708 50.8438-69.1929 29.5538-106.0689z" fill="#5b57ca"/></svg>

<svg width="118" height="146" viewBox="0 0 118 146" fill="none" xmlns="http://www.w3.org/2000/svg">
<path d="M0.361249 11.0917C0.287554 11.3668 0.450785 11.6495 0.725827 11.7232L5.20809 12.9242C5.48315 12.9979 5.76586 12.8347 5.83957 12.5596C5.91327 12.2846 5.75004 12.0019 5.47498 11.9282L1.49075 10.8606L2.55832 6.87636C2.63202 6.60131 2.46879 6.31858 2.19375 6.24489C1.91869 6.17119 1.63597 6.33442 1.56227 6.60948L0.361249 11.0917ZM76.9274 143.708C76.8537 143.983 77.0169 144.266 77.292 144.34L81.7742 145.541C82.0493 145.614 82.332 145.451 82.4057 145.176C82.4794 144.901 82.3162 144.618 82.0411 144.545L78.0569 143.477L79.1245 139.493C79.1982 139.218 79.0349 138.935 78.7599 138.861C78.4848 138.788 78.2021 138.951 78.1284 139.226L76.9274 143.708ZM1.11708 11.6717C38.2398 -9.76112 85.3477 2.36868 106.344 38.7347L107.237 38.2191C85.9463 1.34311 38.2005 -10.9291 0.601481 10.7787L1.11708 11.6717ZM106.344 38.7347C127.34 75.1008 114.29 121.962 77.1676 143.395L77.6832 144.288C115.282 122.58 128.527 75.0951 107.237 38.2191L106.344 38.7347Z" fill="#5B57CA"/>
</svg>
